X:13
T:Stone Outside Dan Murphy's Door, The
R:waltz
D:De Danann: Ballroom
Z:id:hn-waltz-13
M:3/4
L:1/8
K:D
^ga | b2 a2 f2 | d4 d2 | c2 B4- | B4 ef | g2 e2 c2 | A2 B2 A2 | f6- | f2 ^g2 a2 |
b3 a f2 | d4 d2 | c2 B4 | e4 ef | g2 e2 c2 | A2 B2 c2 | d6- | d2 ||
c2 d2 | e2 f3 ^g | a2 b3 a | a2 ^g4- | ^g3 agf | e2 B2 c2 | d2 ^g3 f | e6- | e2
^g2 a2 | b2 a2 f2 | d4 d2 | c2 B2 B2 | e4 ef | g2 e2 c2 | A2 B2 c2 | d6- | d2 ||

